static/svgs/technologies/serverless.svg

<svg height="31" viewBox="0 0 204 31" width="204" xmlns="http://www.w3.org/2000/svg"><g fill="#fff" transform="translate(0 -4)"><path d="m67.28 27.5328c.576-.5472 1.2384-1.6128 1.152-3.2544-.1728-3.5424-3.6288-3.9456-5.9328-4.2336-2.88-.3168-3.3408-.6336-3.3696-1.4976 0-1.0944 1.4976-1.6416 2.8512-1.584 2.5632.0864 4.8672.9504 4.8672.9504l.9216-2.8512c-.1152-.0288-2.7072-.8352-5.7024-.9216-3.1104-.0864-5.9616 1.3536-5.8752 4.464.0576 3.744 3.6288 4.1472 5.9616 4.4064 2.6496.3168 3.3696.6048 3.4272 1.4112.0288.6048 0 2.2176-3.744 1.9296-2.4768-.2016-4.6944-1.3248-4.7232-1.3536l-1.2384 2.592c.144.0576 2.8512 1.3824 6.0192 1.4688 1.6128.0576 3.9168-.0288 5.3856-1.5264zm10.764 1.4976c2.8224 0 5.616-1.152 5.616-1.152l-.7488-2.5632s-2.4768.9792-4.752.9792c-2.9088 0-4.3776-1.8432-4.3776-3.6h10.656l.0006771-1.7052542c.0063729-.5267958-.0522771-6.8483458-6.5382771-6.8483458-6.0116677 0-7.1651401 5.1932433-7.1992086 7.3049045l-.0007914.0966955c0 1.9296.7488 7.488 7.344 7.488zm3.4848-8.8992h-7.7184s.3456-3.1392 4.0896-3.1392c3.8304 0 3.6288 3.1392 3.6288 3.1392zm9.4968 8.6688v-9.0144c0-1.008 1.296-2.3616 2.592-2.3616h5.0112v-3.024h-4.5792c-2.592 0-3.2544 2.3616-3.2544 2.7936l-.1728-2.7936h-2.8224v14.4zm18.9432 0 4.5792-14.4h-3.0816l-3.8016 11.6064-3.3984-11.6064h-3.2544l4.3776 14.4zm13.6152.2304c2.8224 0 5.616-1.152 5.616-1.152l-.7488-2.5632s-2.4768.9792-4.752.9792c-2.9088 0-4.3776-1.8432-4.3776-3.6h10.656l.000677-1.7052542c.006373-.5267958-.052277-6.8483458-6.538277-6.8483458-6.011668 0-7.16514 5.1932433-7.199209 7.3049045l-.000791.0966955c0 1.9296.7488 7.488 7.344 7.488zm3.4848-8.8992h-7.7184s.3456-3.1392 4.0896-3.1392c3.8304 0 3.6288 3.1392 3.6288 3.1392zm9.4968 8.6688v-9.0144c0-1.008 1.296-2.3616 2.592-2.3616h5.0112v-3.024h-4.5792c-2.592 0-3.2544 2.3616-3.2544 2.7936l-.1728-2.7936h-2.8224v14.4zm21.2472 0v-3.024h-5.9328v-17.136h-7.6896v2.6496h4.608v17.5104zm9.2952.2304c2.8224 0 5.616-1.152 5.616-1.152l-.7488-2.5632s-2.4768.9792-4.752.9792c-2.9088 0-4.3776-1.8432-4.3776-3.6h10.656l.000677-1.7052542c.006373-.5267958-.052277-6.8483458-6.538277-6.8483458-6.011668 0-7.16514 5.1932433-7.199209 7.3049045l-.000791.0966955c0 1.9296.7488 7.488 7.344 7.488zm3.4848-8.8992h-7.7184s.3456-3.1392 4.0896-3.1392c3.8304 0 3.6288 3.1392 3.6288 3.1392zm16.4952 7.4016c.576-.5472 1.2384-1.6128 1.152-3.2544-.1728-3.5424-3.6288-3.9456-5.9328-4.2336-2.88-.3168-3.3408-.6336-3.3696-1.4976 0-1.0944 1.4976-1.6416 2.8512-1.584 2.5632.0864 4.8672.9504 4.8672.9504l.9216-2.8512c-.1152-.0288-2.7072-.8352-5.7024-.9216-3.1104-.0864-5.9616 1.3536-5.8752 4.464.0576 3.744 3.6288 4.1472 5.9616 4.4064 2.6496.3168 3.3696.6048 3.4272 1.4112.0288.6048 0 2.2176-3.744 1.9296-2.4768-.2016-4.6944-1.3248-4.7232-1.3536l-1.2384 2.592c.144.0576 2.8512 1.3824 6.0192 1.4688 1.6128.0576 3.9168-.0288 5.3856-1.5264zm14.7888 0c.576-.5472 1.2384-1.6128 1.152-3.2544-.1728-3.5424-3.6288-3.9456-5.9328-4.2336-2.88-.3168-3.3408-.6336-3.3696-1.4976 0-1.0944 1.4976-1.6416 2.8512-1.584 2.5632.0864 4.8672.9504 4.8672.9504l.9216-2.8512c-.1152-.0288-2.7072-.8352-5.7024-.9216-3.1104-.0864-5.9616 1.3536-5.8752 4.464.0576 3.744 3.6288 4.1472 5.9616 4.4064 2.6496.3168 3.3696.6048 3.4272 1.4112.0288.6048 0 2.2176-3.744 1.9296-2.4768-.2016-4.6944-1.3248-4.7232-1.3536l-1.2384 2.592c.144.0576 2.8512 1.3824 6.0192 1.4688 1.6128.0576 3.9168-.0288 5.3856-1.5264z"/><path d="m12.2197183 11.2 2.1802817-6.4h-14.4v6.4zm25.3802817 0v-6.4h-16.3274725l-2.0725275 6.4zm-29.1184466 11.2 1.9184466-6.4h-10.4v6.4zm29.1184466 0v-6.4h-20.456621l-1.943379 6.4zm-33.1 12 1.9-6.4h-6.4v6.4zm33.1 0v-6.4h-24.306383l-2.093617 6.4z"/></g></svg>

<?xml version="1.0" encoding="UTF-8"?>
<svg width="204px" height="31px" viewBox="0 0 204 31" version="1.1" xmlns="http://www.w3.org/2000/svg" xmlns:xlink="http://www.w3.org/1999/xlink">
    <title>logo-serverless-dark</title>
    <desc>Created with Sketch.</desc>
    <g id="Page-1" stroke="none" stroke-width="1" fill="none" fill-rule="evenodd">
        <g id="hero-components" transform="translate(-81.000000, -41.000000)" fill-rule="nonzero">
            <g id="Group-9" transform="translate(0.000000, -183.000000)">
                <g id="logo-serverless-dark" transform="translate(81.000000, 220.000000)">
                    <path d="M67.28,27.5328 C67.856,26.9856 68.5184,25.92 68.432,24.2784 C68.2592,20.736 64.8032,20.3328 62.4992,20.0448 C59.6192,19.728 59.1584,19.4112 59.1296,18.5472 C59.1296,17.4528 60.6272,16.9056 61.9808,16.9632 C64.544,17.0496 66.848,17.9136 66.848,17.9136 L67.7696,15.0624 C67.6544,15.0336 65.0624,14.2272 62.0672,14.1408 C58.9568,14.0544 56.1056,15.4944 56.192,18.6048 C56.2496,22.3488 59.8208,22.752 62.1536,23.0112 C64.8032,23.328 65.5232,23.616 65.5808,24.4224 C65.6096,25.0272 65.5808,26.64 61.8368,26.352 C59.36,26.1504 57.1424,25.0272 57.1136,24.9984 L55.8752,27.5904 C56.0192,27.648 58.7264,28.9728 61.8944,29.0592 C63.5072,29.1168 65.8112,29.0304 67.28,27.5328 Z M78.044,29.0304 C80.8664,29.0304 83.66,27.8784 83.66,27.8784 L82.9112,25.3152 C82.9112,25.3152 80.4344,26.2944 78.1592,26.2944 C75.2504,26.2944 73.7816,24.4512 73.7816,22.6944 L84.4376,22.6944 L84.4382771,20.9891458 C84.44465,20.46235 84.386,14.1408 77.9,14.1408 C71.8883323,14.1408 70.7348599,19.3340433 70.7007914,21.4457045 L70.7,21.5424 C70.7,23.472 71.4488,29.0304 78.044,29.0304 Z M81.5288,20.1312 L73.8104,20.1312 C73.8104,20.1312 74.156,16.992 77.9,16.992 C81.7304,16.992 81.5288,20.1312 81.5288,20.1312 Z M91.0256,28.8 L91.0256,19.7856 C91.0256,18.7776 92.3216,17.424 93.6176,17.424 L98.6288,17.424 L98.6288,14.4 L94.0496,14.4 C91.4576,14.4 90.7952,16.7616 90.7952,17.1936 L90.6224,14.4 L87.8,14.4 L87.8,14.4 L87.8,28.8 L91.0256,28.8 L91.0256,28.8 Z M109.9688,28.8 L114.548,14.4 L111.4664,14.4 L107.6648,26.0064 L104.2664,14.4 L101.012,14.4 L105.3896,28.8 L109.9688,28.8 Z M123.584,29.0304 C126.4064,29.0304 129.2,27.8784 129.2,27.8784 L128.4512,25.3152 C128.4512,25.3152 125.9744,26.2944 123.6992,26.2944 C120.7904,26.2944 119.3216,24.4512 119.3216,22.6944 L129.9776,22.6944 L129.978277,20.9891458 C129.98465,20.46235 129.926,14.1408 123.44,14.1408 C117.428332,14.1408 116.27486,19.3340433 116.240791,21.4457045 L116.24,21.5424 C116.24,23.472 116.9888,29.0304 123.584,29.0304 Z M127.0688,20.1312 L119.3504,20.1312 C119.3504,20.1312 119.696,16.992 123.44,16.992 C127.2704,16.992 127.0688,20.1312 127.0688,20.1312 Z M136.5656,28.8 L136.5656,19.7856 C136.5656,18.7776 137.8616,17.424 139.1576,17.424 L144.1688,17.424 L144.1688,14.4 L139.5896,14.4 C136.9976,14.4 136.3352,16.7616 136.3352,17.1936 L136.1624,14.4 L133.34,14.4 L133.34,14.4 L133.34,28.8 L136.5656,28.8 L136.5656,28.8 Z M157.8128,28.8 L157.8128,25.776 L151.88,25.776 L151.88,8.64 L144.1904,8.64 L144.1904,11.2896 L148.7984,11.2896 L148.7984,28.8 L157.8128,28.8 Z M167.108,29.0304 C169.9304,29.0304 172.724,27.8784 172.724,27.8784 L171.9752,25.3152 C171.9752,25.3152 169.4984,26.2944 167.2232,26.2944 C164.3144,26.2944 162.8456,24.4512 162.8456,22.6944 L173.5016,22.6944 L173.502277,20.9891458 C173.50865,20.46235 173.45,14.1408 166.964,14.1408 C160.952332,14.1408 159.79886,19.3340433 159.764791,21.4457045 L159.764,21.5424 C159.764,23.472 160.5128,29.0304 167.108,29.0304 Z M170.5928,20.1312 L162.8744,20.1312 C162.8744,20.1312 163.22,16.992 166.964,16.992 C170.7944,16.992 170.5928,20.1312 170.5928,20.1312 Z M187.088,27.5328 C187.664,26.9856 188.3264,25.92 188.24,24.2784 C188.0672,20.736 184.6112,20.3328 182.3072,20.0448 C179.4272,19.728 178.9664,19.4112 178.9376,18.5472 C178.9376,17.4528 180.4352,16.9056 181.7888,16.9632 C184.352,17.0496 186.656,17.9136 186.656,17.9136 L187.5776,15.0624 C187.4624,15.0336 184.8704,14.2272 181.8752,14.1408 C178.7648,14.0544 175.9136,15.4944 176,18.6048 C176.0576,22.3488 179.6288,22.752 181.9616,23.0112 C184.6112,23.328 185.3312,23.616 185.3888,24.4224 C185.4176,25.0272 185.3888,26.64 181.6448,26.352 C179.168,26.1504 176.9504,25.0272 176.9216,24.9984 L175.6832,27.5904 C175.8272,27.648 178.5344,28.9728 181.7024,29.0592 C183.3152,29.1168 185.6192,29.0304 187.088,27.5328 Z M201.8768,27.5328 C202.4528,26.9856 203.1152,25.92 203.0288,24.2784 C202.856,20.736 199.4,20.3328 197.096,20.0448 C194.216,19.728 193.7552,19.4112 193.7264,18.5472 C193.7264,17.4528 195.224,16.9056 196.5776,16.9632 C199.1408,17.0496 201.4448,17.9136 201.4448,17.9136 L202.3664,15.0624 C202.2512,15.0336 199.6592,14.2272 196.664,14.1408 C193.5536,14.0544 190.7024,15.4944 190.7888,18.6048 C190.8464,22.3488 194.4176,22.752 196.7504,23.0112 C199.4,23.328 200.12,23.616 200.1776,24.4224 C200.2064,25.0272 200.1776,26.64 196.4336,26.352 C193.9568,26.1504 191.7392,25.0272 191.7104,24.9984 L190.472,27.5904 C190.616,27.648 193.3232,28.9728 196.4912,29.0592 C198.104,29.1168 200.408,29.0304 201.8768,27.5328 Z" id="serverless" fill="#ffffff"></path>
                    <path d="M12.2197183,11.2 L14.4,4.8 L0,4.8 L0,11.2 L12.2197183,11.2 Z M37.6,11.2 L37.6,4.8 L21.2725275,4.8 L19.2,11.2 L37.6,11.2 Z M8.4815534,22.4 L10.4,16 L0,16 L0,22.4 L8.4815534,22.4 Z M37.6,22.4 L37.6,16 L17.143379,16 L15.2,22.4 L37.6,22.4 Z M4.5,34.4 L6.4,28 L0,28 L0,34.4 L4.5,34.4 Z M37.6,34.4 L37.6,28 L13.293617,28 L11.2,34.4 L37.6,34.4 Z" id="ß" fill="#ffffff"></path>
                </g>
            </g>
        </g>
    </g>
</svg>
